gtk-icons/Papirus-Dark-GTK/16x16/places/folder-temp.svg

<?xml version="1.0" encoding="UTF-8" standalone="no"?>
<!-- Created with Inkscape (http://www.inkscape.org/) -->

<svg
   xmlns:osb="http://www.openswatchbook.org/uri/2009/osb"
   xmlns:dc="http://purl.org/dc/elements/1.1/"
   xmlns:cc="http://creativecommons.org/ns#"
   xmlns:rdf="http://www.w3.org/1999/02/22-rdf-syntax-ns#"
   xmlns:svg="http://www.w3.org/2000/svg"
   xmlns="http://www.w3.org/2000/svg"
   xmlns:sodipodi="http://sodipodi.sourceforge.net/DTD/sodipodi-0.dtd"
   xmlns:inkscape="http://www.inkscape.org/namespaces/inkscape"
   sodipodi:docname="folder-temp.svg"
   inkscape:export-filename="/home/sam/source-symbolic.png"
   inkscape:export-xdpi="270"
   inkscape:export-ydpi="270"
   height="16"
   id="svg7384"
   style="enable-background:new"
   version="1.1"
   inkscape:version="0.91 r"
   width="16">
  <sodipodi:namedview
     inkscape:bbox-nodes="true"
     inkscape:bbox-paths="true"
     bordercolor="#666666"
     borderlayer="false"
     borderopacity="1"
     inkscape:current-layer="layer1"
     inkscape:cx="1.1950464"
     inkscape:cy="6.00683"
     gridtolerance="10"
     inkscape:guide-bbox="true"
     guidetolerance="10"
     id="namedview88"
     inkscape:object-nodes="true"
     inkscape:object-paths="true"
     objecttolerance="10"
     pagecolor="#f7f7f7"
     inkscape:pageopacity="1"
     inkscape:pageshadow="2"
     showborder="false"
     showgrid="false"
     showguides="true"
     inkscape:showpageshadow="false"
     inkscape:snap-bbox="true"
     inkscape:snap-bbox-edge-midpoints="false"
     inkscape:snap-bbox-midpoints="false"
     inkscape:snap-center="false"
     inkscape:snap-global="true"
     inkscape:snap-grids="true"
     inkscape:snap-intersection-paths="true"
     inkscape:snap-midpoints="true"
     inkscape:snap-nodes="true"
     inkscape:snap-object-midpoints="true"
     inkscape:snap-others="true"
     inkscape:snap-page="false"
     inkscape:snap-smooth-nodes="true"
     inkscape:snap-to-guides="true"
     inkscape:window-height="841"
     inkscape:window-maximized="1"
     inkscape:window-width="1600"
     inkscape:window-x="-4"
     inkscape:window-y="33"
     inkscape:zoom="16.15">
    <inkscape:grid
       color="#ffffff"
       dotted="false"
       empcolor="#0800ff"
       empopacity="0.4627451"
       empspacing="4"
       enabled="true"
       id="grid4866"
       opacity="0.16470588"
       originx="-526.9998px"
       originy="-608.99988px"
       snapvisiblegridlinesonly="true"
       spacingx="0.25px"
       spacingy="0.25px"
       type="xygrid"
       visible="true" />
  </sodipodi:namedview>
  <metadata
     id="metadata90">
    <rdf:RDF>
      <cc:Work
         rdf:about="">
        <dc:format>image/svg+xml</dc:format>
        <dc:type
           rdf:resource="http://purl.org/dc/dcmitype/StillImage" />
        <dc:title>Paper Symbolic Icon Theme</dc:title>
      </cc:Work>
    </rdf:RDF>
  </metadata>
  <title
     id="title8473">Paper Symbolic Icon Theme</title>
  <defs
     id="defs7386">
    <linearGradient
       id="linearGradient5606"
       osb:paint="solid">
      <stop
         id="stop5608"
         offset="0"
         style="stop-color:#ffffff;stop-opacity:1;" />
    </linearGradient>
    <filter
       inkscape:collect="always"
       color-interpolation-filters="sRGB"
       id="filter7554">
      <feBlend
         inkscape:collect="always"
         id="feBlend7556"
         in2="BackgroundImage"
         mode="darken" />
    </filter>
  </defs>
  <g
     inkscape:groupmode="layer"
     id="layer9"
     inkscape:label="status"
     style="display:inline"
     transform="translate(-768,391.99988)" />
  <g
     inkscape:groupmode="layer"
     id="layer10"
     inkscape:label="devices"
     style="display:inline;filter:url(#filter7554)"
     transform="translate(-768,391.99988)" />
  <g
     inkscape:groupmode="layer"
     id="layer1"
     inkscape:label="places"
     style="display:inline"
     transform="translate(-526.9998,-225.00012)">
    <path
       style="color:#ffffff;fill:#ffffff;fill-opacity:1;fill-rule:evenodd;stroke:none;stroke-width:1;marker:none;visibility:visible;display:inline;overflow:visible;enable-background:new;opacity:0.72"
       d="M 2.8125 1 C 2.7888 1.005 2.7732 1.02485 2.75 1.03125 C 2.6709 1.05065 2.59063 1.0775 2.5 1.125 C 2.4006 1.1771 2.30197 1.24386 2.21875 1.34375 C 2.20975 1.35455 2.1958 1.3639 2.1875 1.375 C 2.1305 1.4509 2.0956 1.54868 2.0625 1.65625 C 2.0535 1.68695 2.03815 1.7164 2.03125 1.75 C 2.01035 1.8307 1.9985 1.91601 2 2 L 2 9 L 2 10 L 2 11 L 3 11 L 3 10 L 4 10 L 4 9 L 4 3 L 9 3 L 9 6 L 12 6 L 12 14 L 12 15 L 13 15 L 13 14 L 14 14 C 14.001 13.85484 13.99918 13.26237 14 13 L 14 12 C 14.00043 11.64392 13.9999 11.42627 14 11 L 14 10 L 14 8 C 13.998 5.58306 13.99934 5.65373 14 5.5625 C 14.00015 5.5414 14 5 14 5 L 10 1 L 9.4375 1 L 3 1 C 3 1 2.94445 1.001 2.90625 1 C 2.87505 0.999 2.8437 0.999 2.8125 1 z M 13 15 L 13 16 L 14 16 L 14 15 L 13 15 z M 12 15 L 11 15 L 11 16 L 12 16 L 12 15 z M 11 15 L 11 14 L 10 14 L 10 15 L 11 15 z M 10 15 L 9 15 L 9 16 L 10 16 L 10 15 z M 9 15 L 9 14 L 8 14 L 8 15 L 9 15 z M 8 15 L 7 15 L 7 16 L 8 16 L 8 15 z M 7 15 L 7 14 L 6 14 L 6 15 L 7 15 z M 6 15 L 5 15 L 5 16 L 6 16 L 6 15 z M 5 15 L 5 14 L 4 14 L 4 15 L 5 15 z M 4 15 L 3 15 L 3 16 L 4 16 L 4 15 z M 3 15 L 3 14 L 2 14 L 2 15 L 3 15 z M 3 14 L 4 14 L 4 13 L 3 13 L 3 14 z M 3 13 L 3 12 L 2 12 L 2 13 L 3 13 z M 3 12 L 4 12 L 4 11 L 3 11 L 3 12 z "
       transform="translate(526.9998,225.00012)"
       id="rect12037" />
  </g>
  <g
     inkscape:groupmode="layer"
     id="layer14"
     inkscape:label="mimetypes"
     style="display:inline"
     transform="translate(-768,391.99988)" />
  <g
     inkscape:groupmode="layer"
     id="layer15"
     inkscape:label="emblems"
     style="display:inline"
     transform="translate(-768,391.99988)" />
  <g
     inkscape:groupmode="layer"
     id="g71291"
     inkscape:label="emotes"
     style="display:inline"
     transform="translate(-768,391.99988)" />
  <g
     inkscape:groupmode="layer"
     id="layer2"
     inkscape:label="categories"
     style="display:inline"
     transform="translate(-526.9998,-75.00012)" />
  <g
     inkscape:groupmode="layer"
     id="g6058"
     inkscape:label="apps"
     style="display:inline"
     transform="translate(-526.9998,-75.00012)" />
  <g
     inkscape:groupmode="layer"
     id="layer12"
     inkscape:label="actions"
     style="display:inline"
     transform="translate(-768,391.99988)" />
</svg>

<?xml version="1.0" encoding="UTF-8" standalone="no"?>
<!-- Created with Inkscape (http://www.inkscape.org/) -->
<svg id="svg7384" xmlns:rdf="http://www.w3.org/1999/02/22-rdf-syntax-ns#" style="enable-background:new" xmlns="http://www.w3.org/2000/svg" xmlns:osb="http://www.openswatchbook.org/uri/2009/osb" height="16" width="16" version="1.1" xmlns:cc="http://creativecommons.org/ns#" xmlns:dc="http://purl.org/dc/elements/1.1/">
 <metadata id="metadata90">
  <rdf:RDF>
   <cc:Work rdf:about="">
    <dc:format>image/svg+xml</dc:format>
    <dc:type rdf:resource="http://purl.org/dc/dcmitype/StillImage"/>
    <dc:title>Paper Symbolic Icon Theme</dc:title>
   </cc:Work>
  </rdf:RDF>
 </metadata>
 <title id="title8473">Paper Symbolic Icon Theme</title>
 <defs id="defs7386">
  <filter id="filter7554" color-interpolation-filters="sRGB">
   <feBlend id="feBlend7556" in2="BackgroundImage" mode="darken"/>
  </filter>
 </defs>
 <g id="layer1" transform="translate(-527 -225)">
  <path id="rect12037" opacity=".72" style="color:#ffffff;enable-background:new" d="m2.8125 1c-0.0237 0.005-0.0393 0.0248-0.0625 0.0312-0.0791 0.0194-0.1594 0.0463-0.25 0.0938-0.0994 0.0521-0.198 0.1189-0.2812 0.2188-0.009 0.0108-0.023 0.0201-0.0313 0.0312-0.057 0.0759-0.0919 0.1737-0.125 0.2812-0.009 0.0308-0.0243 0.0602-0.0313 0.0938-0.0208 0.0807-0.0327 0.166-0.0312 0.25v7 1 1h1v-1h1v-1-6h5v3h3v8 1h1v-1h1c0.001-0.145-0.001-0.738 0-1v-1-1-1-2c-0.002-2.4169-0.001-2.3463 0-2.4375v-0.5625l-4-4h-0.5625-6.4375s-0.0556 0.001-0.0938 0c-0.0312-0.001-0.0625-0.001-0.0937 0zm10.188 14v1h1v-1h-1zm-1 0h-1v1h1v-1zm-1 0v-1h-1v1h1zm-1 0h-1v1h1v-1zm-1 0v-1h-1v1h1zm-1 0h-1v1h1v-1zm-1 0v-1h-1v1h1zm-1 0h-1v1h1v-1zm-1 0v-1h-1v1h1zm-1 0h-1v1h1v-1zm-1 0v-1h-1v1h1zm0-1h1v-1h-1v1zm0-1v-1h-1v1h1zm0-1h1v-1h-1v1z" fill-rule="evenodd" transform="translate(527 225)" fill="#fff"/>
 </g>
</svg>
